;FLAVOR:Marlin
;TIME:3605
;Filament used: 5.10431m
;Layer height: 0.5
;MINX:82.916
;MINY:79.896
;MINZ:0.24
;MAXX:137.082
;MAXY:140.222
;MAXZ:32.34
;Generated with Cura_SteamEngine 5.0.0
M140 S60
M105
M190 S60
M104 S210
M105
M109 S210
M82 ;absolute extrusion mode
; Ender 3 Custom Start G-code
G92 E0 ; Reset Extruder
G28 ; Home all axes
G1 Z2.0 F3000 ; Move Z Axis up little to prevent scratching of Heat Bed
G1 X0.1 Y20 Z0.3 F5000.0 ; Move to start position
G1 X0.1 Y200.0 Z0.3 F1500.0 E15 ; Draw the first line
G1 X0.4 Y200.0 Z0.3 F5000.0 ; Move to side a little
G1 X0.4 Y20 Z0.3 F1500.0 E30 ; Draw the second line
G92 E0 ; Reset Extruder
G1 Z2.0 F3000 ; Move Z Axis up little to prevent scratching of Heat Bed
G1 X5 Y20 Z0.3 F5000.0 ; Move over to prevent blob squish
G92 E0
G92 E0
G1 F1500 E-6.5
;LAYER_COUNT:61
;LAYER:-5
M107
G0 F9000 X87.906 Y89.271 Z0.24
;TYPE:SUPPORT-INTERFACE
G1 F1500 E0
G1 F1125 X87.394 Y89.9 E0.06474
G1 X87.231 Y90.123 E0.08679
G1 X86.783 Y90.766 E0.14935
G1 X86.639 Y90.997 E0.17108
G1 X86.151 Y91.825 E0.2478
G1 X85.789 Y92.553 E0.3127
G1 X85.131 Y93.726 E0.42005
G1 X84.675 Y94.681 E0.50453
G1 X84.564 Y94.949 E0.52769
G1 X84.286 Y95.672 E0.58952
G1 X84.19 Y95.964 E0.61406
G1 X83.957 Y96.742 E0.67888
G1 X83.423 Y98.762 E0.84567
G1 X83.18 Y99.852 E0.93481
G1 X83.132 Y100.132 E0.95749
G1 X83.02 Y100.917 E1.02079
G1 X82.996 Y101.177 E1.04163
G1 X82.936 Y102.026 E1.10957
G1 X82.916 Y102.596 E1.1551
G1 X82.916 Y103.675 E1.24123
G1 X82.936 Y104.256 E1.28763
G1 X82.969 Y104.844 E1.33464
G1 X83.03 Y105.581 E1.39367
G1 X83.178 Y106.669 E1.48132
G1 X83.393 Y107.831 E1.57565
G1 X83.506 Y108.357 E1.6186
G1 X83.729 Y109.195 E1.68782
G1 X83.887 Y109.851 E1.74168
G1 X84.042 Y110.379 E1.78561
G1 X84.208 Y111.183 E1.85114
G1 X84.252 Y111.85 E1.9045
G1 X84.255 Y114.095 E2.0837
G1 X84.268 Y114.355 E2.10448
G1 X84.326 Y115.155 E2.16851
G1 X84.473 Y116.208 E2.25338
G1 X84.698 Y117.258 E2.3391
G1 X84.765 Y117.508 E2.35976
G1 X85.017 Y118.348 E2.42977
G1 X85.114 Y118.638 E2.45417
G1 X85.494 Y119.639 E2.53964
G1 X85.777 Y120.311 E2.59785
G1 X86.066 Y120.947 E2.65361
G1 X86.577 Y121.917 E2.74113
G1 X87.148 Y122.829 E2.82702
G1 X87.658 Y123.535 E2.89654
G1 X88.488 Y124.537 E3.0004
G1 X89.079 Y125.197 E3.07112
G1 X89.657 Y125.98 E3.14881
G1 X89.973 Y126.586 E3.20336
G1 X90.209 Y127.222 E3.25751
G1 X90.282 Y127.467 E3.27792
G1 X90.412 Y127.859 E3.31089
G1 X90.73 Y128.717 E3.38393
G1 X91.006 Y129.363 E3.44001
G1 X91.494 Y130.341 E3.52725
G1 X91.933 Y131.095 E3.5969
G1 X92.537 Y131.984 E3.68269
G1 X92.707 Y132.208 E3.70514
G1 X93.194 Y132.815 E3.76726
G1 X93.399 Y133.046 E3.79191
G1 X94.218 Y133.935 E3.8884
G1 X94.977 Y134.672 E3.97285
G1 X95.616 Y135.216 E4.03984
G1 X96.375 Y135.855 E4.11904
G1 X96.882 Y136.225 E4.16914
G1 X97.223 Y136.47 E4.20266
G1 X97.485 Y136.639 E4.22755
G1 X98.384 Y137.184 E4.31146
G1 X99.116 Y137.623 E4.3796
G1 X99.901 Y138.026 E4.45004
G1 X100.159 Y138.142 E4.47262
G1 X100.879 Y138.449 E4.5351
G1 X101.433 Y138.661 E4.58245
G1 X102.126 Y138.954 E4.64251
G1 X102.376 Y139.046 E4.66377
G1 X103.119 Y139.298 E4.7264
G1 X103.382 Y139.373 E4.74823
G1 X104.318 Y139.614 E4.82538
G1 X105.198 Y139.777 E4.89682
G1 X106.261 Y139.9 E4.98224
G1 X106.515 Y139.92 E5.00258
G1 X107.051 Y139.988 E5.04571
G1 X107.412 Y140.045 E5.07488
G1 X108.319 Y140.143 E5.1477
G1 X108.927 Y140.188 E5.19637
G1 X109.854 Y140.222 E5.27042
G1 X110.95 Y140.191 E5.35794
G1 X111.561 Y140.15 E5.40682
G1 X112.531 Y140.051 E5.48465
G1 X112.957 Y139.982 E5.5191
G1 X113.497 Y139.923 E5.56246
G1 X113.752 Y139.899 E5.58291
G1 X114.799 Y139.777 E5.66705
G1 X115.698 Y139.609 E5.74005
G1 X116.262 Y139.467 E5.78648
G1 X116.726 Y139.346 E5.82476
G1 X116.973 Y139.268 E5.84543
G1 X117.895 Y138.946 E5.92339
G1 X118.61 Y138.642 E5.98541
G1 X119.006 Y138.493 E6.01918
G1 X119.986 Y138.078 E6.10414
G1 X120.228 Y137.96 E6.12563
G1 X120.939 Y137.592 E6.18953
G1 X121.188 Y137.447 E6.21254
G1 X121.907 Y137.005 E6.27991
G1 X122.342 Y136.751 E6.32012
G1 X123.203 Y136.171 E6.40298
G1 X123.44 Y135.993 E6.42664
G1 X124.045 Y135.514 E6.48824
G1 X124.884 Y134.807 E6.57582
G1 X125.531 Y134.201 E6.64659
G1 X126.497 Y133.169 E6.75942
G1 X127.07 Y132.499 E6.8298
G1 X127.252 Y132.262 E6.85365
G1 X127.808 Y131.499 E6.92901
G1 X128.286 Y130.738 E7.00075
G1 X128.79 Y129.799 E7.08582
G1 X129.061 Y129.199 E7.13837
G1 X129.278 Y128.707 E7.18129
G1 X129.579 Y127.885 E7.25117
G1 X129.848 Y127.057 E7.32066
G1 X129.931 Y126.819 E7.34078
G1 X130.211 Y126.209 E7.39436
G1 X130.558 Y125.646 E7.44715
G1 X130.862 Y125.269 E7.48581
G1 X131.167 Y124.918 E7.52293
G1 X131.39 Y124.677 E7.54914
G1 X132.106 Y123.839 E7.63713
G1 X132.644 Y123.136 E7.70779
G1 X132.796 Y122.915 E7.7292
G1 X133.235 Y122.245 E7.79314
G1 X133.369 Y122.015 E7.81439
G1 X133.754 Y121.318 E7.87795
G1 X133.876 Y121.068 E7.90016
G1 X134.227 Y120.309 E7.96691
G1 X134.487 Y119.697 E8.01998
G1 X134.778 Y118.942 E8.08457
G1 X134.879 Y118.66 E8.10848
G1 X135.151 Y117.819 E8.17904
G1 X135.296 Y117.232 E8.22731
G1 X135.44 Y116.639 E8.27602
G1 X135.59 Y115.763 E8.34696
G1 X135.624 Y115.481 E8.36963
G1 X135.702 Y114.686 E8.4334
G1 X135.735 Y113.789 E8.50505
G1 X135.752 Y111.69 E8.67261
G1 X135.815 Y111.026 E8.72585
G1 X135.93 Y110.503 E8.76859
G1 X136.045 Y110.082 E8.80343
G1 X136.129 Y109.794 E8.82738
G1 X136.2 Y109.493 E8.85207
G1 X136.35 Y108.926 E8.89888
G1 X136.562 Y108.048 E8.97098
G1 X136.728 Y107.25 E9.03605
G1 X136.823 Y106.659 E9.08383
G1 X136.955 Y105.733 E9.15849
G1 X137.019 Y105.012 E9.21627
G1 X137.063 Y104.257 E9.27664
G1 X137.082 Y103.709 E9.32041
G1 X137.082 Y103.187 E9.36208
G1 X137.079 Y102.54 E9.41373
G1 X136.963 Y101.133 E9.52642
G1 X136.919 Y100.826 E9.55118
G1 X136.787 Y100.061 E9.61315
G1 X136.662 Y99.532 E9.65654
G1 X136.533 Y99.014 E9.69915
G1 X136.344 Y98.377 E9.75219
G1 X135.855 Y96.45 E9.91088
G1 X135.529 Y95.35 E10.00246
G1 X135.439 Y95.094 E10.02413
G1 X135.091 Y94.207 E10.10018
G1 X134.705 Y93.385 E10.17267
G1 X134.199 Y92.47 E10.25614
G1 X133.965 Y92.058 E10.29396
G1 X133.679 Y91.53 E10.34189
G1 X133.124 Y90.632 E10.42616
G1 X132.605 Y89.906 E10.4974
G1 X132.424 Y89.676 E10.52076
G1 X131.923 Y89.073 E10.58334
G1 X131.738 Y88.873 E10.60509
G1 X131.067 Y88.181 E10.68203
G1 X130.507 Y87.679 E10.74206
G1 X129.985 Y87.179 E10.79976
G1 X129.312 Y86.567 E10.87238
G1 X128.607 Y85.981 E10.94556
G1 X128.372 Y85.804 E10.96904
G1 X127.987 Y85.499 E11.00825
G1 X127.124 Y84.875 E11.09326
G1 X126.864 Y84.697 E11.11841
G1 X126.397 Y84.365 E11.16415
G1 X125.496 Y83.81 E11.24862
G1 X125.211 Y83.655 E11.27452
G1 X124.467 Y83.224 E11.34315
G1 X123.683 Y82.821 E11.41352
G1 X123.173 Y82.596 E11.45801
G1 X122.429 Y82.236 E11.52399
G1 X121.627 Y81.895 E11.59356
G1 X121.377 Y81.803 E11.61482
G1 X120.712 Y81.576 E11.67091
G1 X120.071 Y81.327 E11.7258
G1 X119.24 Y81.046 E11.79583
G1 X118.983 Y80.972 E11.81717
G1 X118.199 Y80.767 E11.88186
G1 X117.933 Y80.712 E11.90354
G1 X117.335 Y80.601 E11.95209
G1 X116.965 Y80.518 E11.98236
G1 X115.849 Y80.231 E12.07435
G1 X114.967 Y80.068 E12.14594
G1 X113.893 Y79.943 E12.23225
G1 X112.761 Y79.897 E12.32269
G1 X107.294 Y79.896 E12.75909
G1 X106.642 Y79.909 E12.81114
G1 X105.588 Y79.993 E12.89555
G1 X104.548 Y80.15 E12.9795
G1 X103.484 Y80.392 E13.06661
G1 X102.741 Y80.583 E13.12784
G1 X101.836 Y80.758 E13.20142
G1 X100.82 Y81.025 E13.28528
G1 X99.788 Y81.379 E13.37237
G1 X99.109 Y81.634 E13.43027
G1 X98.775 Y81.75 E13.45849
G1 X97.943 Y82.071 E13.52967
G1 X97.669 Y82.193 E13.55362
G1 X96.93 Y82.548 E13.61906
G1 X96.268 Y82.843 E13.67691
G1 X95.474 Y83.256 E13.74835
G1 X95.073 Y83.494 E13.78558
G1 X94.298 Y83.93 E13.85656
G1 X93.378 Y84.52 E13.9438
G1 X93.134 Y84.699 E13.96796
G1 X92.31 Y85.275 E14.04821
G1 X91.854 Y85.635 E14.09459
G1 X91.478 Y85.915 E14.13201
G1 X90.778 Y86.486 E14.20412
G1 X90.421 Y86.819 E14.24309
G1 X90.14 Y87.065 E14.2729
G1 X89.636 Y87.54 E14.32818
G1 X88.682 Y88.428 E14.43222
G1 X88.068 Y89.08 E14.50371
G1 X87.906 Y89.271 E14.5237
G0 F9000 X87.79 Y90.052
G1 F1125 X128.056 Y130.319 E19.06933
G1 F1500 E12.56933
G1 F300 Z0.44
G0 F9000 X127.168 Y131.694 Z0.44
G1 F300 Z0.24
G1 F1500 E19.06933
G1 F1125 X86.87 Y91.395 E23.61858
G1 F1500 E17.11858
G1 F300 Z0.44
G0 F9000 X86.072 Y92.86 Z0.44
G1 F300 Z0.24
G1 F1500 E23.61858
G1 F1125 X126.158 Y132.946 E28.14383
G1 F1500 E21.64383
G1 F300 Z0.44
G0 F9000 X125.05 Y134.101 Z0.44
G1 F300 Z0.24
G1 F1500 E28.14383
G1 F1125 X85.282 Y94.333 E32.63319
G1 F1500 E26.13319
G1 F300 Z0.44
G0 F9000 X84.62 Y95.933 Z0.44
G1 F300 Z0.24
G1 F1500 E32.63319
G1 F1125 X123.844 Y135.157 E37.06113
G1 F1500 E30.56113
G1 F300 Z0.44
G0 F9000 X122.549 Y136.125 Z0.44
G1 F300 Z0.24
G1 F1500 E37.06113
G1 F1125 X84.118 Y97.694 E41.39955
G1 F1500 E34.89955
G1 F300 Z0.44
G0 F9000 X83.668 Y99.507 Z0.44
G1 F300 Z0.24
G1 F1500 E41.39955
G1 F1125 X121.154 Y136.994 E45.63135
G1 F1500 E39.13135
G1 F300 Z0.44
G0 F9000 X119.671 Y137.773 Z0.44
G1 F300 Z0.24
G1 F1500 E45.63135
G1 F1125 X83.377 Y101.479 E49.72853
G1 F1500 E43.22853
G1 F300 Z0.44
G0 F9000 X83.315 Y103.68 Z0.44
G1 F300 Z0.24
G1 F1500 E49.72853
G1 F1125 X118.071 Y138.435 E53.65203
G1 F1500 E47.15203
G1 F300 Z0.44
G0 F9000 X116.389 Y139.016 Z0.44
G1 F300 Z0.24
G1 F1500 E53.65203
G1 F1125 X83.509 Y106.136 E57.36381
G1 F1500 E50.86381
G1 F300 Z0.44
G0 F9000 X84.08 Y108.97 Z0.44
G1 F300 Z0.24
G1 F1500 E57.36381
G1 F1125 X114.515 Y139.406 E60.79964
G1 F1500 E54.29964
G1 F300 Z0.44
G0 F9000 X112.497 Y139.65 Z0.44
G1 F300 Z0.24
G1 F1500 E60.79964
G1 F1125 X84.649 Y111.802 E63.94336
G1 F1500 E57.44336
G1 F300 Z0.44
G0 F9000 X84.654 Y114.069 Z0.44
G1 F300 Z0.24
G1 F1500 E63.94336
G1 F1125 X110.39 Y139.806 E66.84872
G1 F1500 E60.34872
G1 F300 Z0.44
G0 F9000 X108.03 Y139.708 Z0.44
G1 F300 Z0.24
G1 F1500 E66.84872
G1 F1125 X84.977 Y116.655 E69.45114
G1 F1500 E62.95114
G1 F300 Z0.44
G0 F9000 X86.099 Y120.04 Z0.44
G1 F300 Z0.24
G1 F1500 E69.45114
G1 F1125 X105.462 Y139.403 E71.637
G1 F1500 E65.137
G1 F300 Z0.44
G0 F9000 X102.441 Y138.645 Z0.44
G1 F300 Z0.24
G1 F1500 E71.637
G1 F1125 X90.405 Y126.609 E72.99573
G1 F1500 E66.49573
G1 F300 Z0.44
G0 F9000 X92.072 Y130.538 Z0.44
G1 F300 Z0.24
G1 F1500 E72.99573
G1 F1125 X98.035 Y136.502 E73.66894
G1 F1500 E67.16894
G1 F300 Z0.44
G0 F9000 X128.798 Y128.798 Z0.44
G1 F300 Z0.24
G1 F1500 E73.66894
G1 F1125 X88.84 Y88.84 E78.17975
G1 F1500 E71.67975
G1 F300 Z0.44
G0 F9000 X90.003 Y87.74 Z0.44
G1 F300 Z0.24
G1 F1500 E78.17975
G1 F1125 X129.401 Y127.139 E82.62739
G1 F1500 E76.12739
G1 F300 Z0.44
G0 F9000 X130.12 Y125.594 Z0.44
G1 F300 Z0.24
G1 F1500 E82.62739
G1 F1125 X91.191 Y86.665 E87.02203
G1 F1500 E80.52203
G1 F300 Z0.44
G0 F9000 X92.457 Y85.668 Z0.44
G1 F300 Z0.24
G1 F1500 E87.02203
G1 F1125 X131.14 Y124.352 E91.38896
G1 F1500 E84.88896
G1 F300 Z0.44
G0 F9000 X132.158 Y123.107 Z0.44
G1 F300 Z0.24
G1 F1500 E91.38896
G1 F1125 X93.784 Y84.734 E95.72089
G1 F1500 E89.22089
G1 F300 Z0.44
G0 F9000 X95.196 Y83.882 Z0.44
G1 F300 Z0.24
G1 F1500 E95.72089
G1 F1125 X133.057 Y121.743 E99.99497
G1 F1500 E93.49497
G1 F300 Z0.44
G0 F9000 X133.815 Y120.238 Z0.44
G1 F300 Z0.24
G1 F1500 E99.99497
G1 F1125 X96.675 Y83.099 E104.18759
G1 F1500 E97.68759
G1 F300 Z0.44
G0 F9000 X98.231 Y82.392 Z0.44
G1 F300 Z0.24
G1 F1500 E104.18759
G1 F1125 X134.464 Y118.625 E108.27789
G1 F1500 E101.77789
G1 F300 Z0.44
G0 F9000 X134.971 Y116.869 Z0.44
G1 F300 Z0.24
G1 F1500 E108.27789
G1 F1125 X99.875 Y81.773 E112.23983
G1 F1500 E105.73983
G1 F300 Z0.44
G0 F9000 X101.598 Y81.233 Z0.44
G1 F300 Z0.24
G1 F1500 E112.23983
G1 F1125 X135.275 Y114.911 E116.04164
G1 F1500 E109.54164
G1 F300 Z0.44
G0 F9000 X135.343 Y112.715 Z0.44
G1 F300 Z0.24
G1 F1500 E116.04164
G1 F1125 X103.443 Y80.815 E119.64278
G1 F1500 E113.14278
G1 F300 Z0.44
G0 F9000 X105.327 Y80.437 Z0.44
G1 F300 Z0.24
G1 F1500 E119.64278
G1 F1125 X135.498 Y110.608 E123.04875
G1 F1500 E116.54875
G1 F300 Z0.44
G0 F9000 X135.961 Y108.808 Z0.44
G1 F300 Z0.24
G1 F1500 E123.04875
G1 F1125 X107.449 Y80.296 E126.26743
G1 F1500 E119.76743
G1 F300 Z0.44
G0 F9000 X109.711 Y80.296 Z0.44
G1 F300 Z0.24
G1 F1500 E126.26743
G1 F1125 X136.37 Y106.954 E129.27687
G1 F1500 E122.77687
G1 F300 Z0.44
G0 F9000 X136.618 Y104.94 Z0.44
G1 F300 Z0.24
G1 F1500 E129.27687
G1 F1125 X111.975 Y80.296 E132.05884
G1 F1500 E125.55884
G1 F300 Z0.44
G0 F9000 X114.339 Y80.398 Z0.44
G1 F300 Z0.24
G1 F1500 E132.05884
G1 F1125 X136.678 Y102.737 E134.58066
G1 F1500 E128.08066
G1 F300 Z0.44
G0 F9000 X136.404 Y100.2 Z0.44
G1 F300 Z0.24
G1 F1500 E134.58066
G1 F1125 X117.176 Y80.972 E136.75128
G1 F1500 E130.25128
G1 F300 Z0.44
G0 F9000 X120.319 Y81.853 Z0.44
G1 F300 Z0.24
G1 F1500 E136.75128
G1 F1125 X135.62 Y97.153 E138.47854
G1 F1500 E131.97854
G1 F300 Z0.44
G0 F9000 X134.394 Y93.665 Z0.44
G1 F300 Z0.24
G1 F1500 E138.47854
G1 F1125 X124.345 Y83.616 E139.61295
G1 F1500 E133.11295
G1 F300 Z0.44
G0 F9000 X92.544 Y85.597 Z0.44
;TIME_ELAPSED:119.271622
;LAYER:-4
G0 X92.544 Y85.597 Z1.19
;TYPE:SUPPORT
G1 F300 Z0.99
G1 F1500 E139.61295
G1 F1125 X92.1 Y85.948 E139.75414
G1 X91.737 Y86.22 E139.86729
G1 X91.039 Y86.788 E140.09177
G1 X88.96 Y88.714 E140.79872
G1 X88.365 Y89.345 E141.01507
G1 X87.597 Y90.292 E141.31922
G1 X87.122 Y90.976 E141.52695
G1 X86.969 Y91.221 E141.599
G1 X92.713 Y85.477 E143.62535
G1 X93.616 Y84.84 E143.90102
G1 X94.353 Y84.36 E144.12041
G1 X95.281 Y83.834 E144.38651
G1 X95.651 Y83.614 E144.49389
G1 X96.359 Y83.245 E144.69304
G1 X85.292 Y94.312 E148.59723
G1 X85.039 Y94.841 E148.7435
G1 X84.666 Y95.793 E148.99856
G1 X84.414 Y96.604 E149.2104
G1 X98.892 Y82.126 E154.31791
G1 X99.242 Y82.011 E154.40981
G1 X99.913 Y81.759 E154.5886
G1 X100.924 Y81.411 E154.85532
G1 X101.057 Y81.375 E154.88969
G1 X83.896 Y98.536 E160.9437
G1 X83.784 Y98.964 E161.05406
G1 X83.539 Y100.095 E161.34273
G1 X83.505 Y100.342 E161.40493
G1 X102.891 Y80.956 E168.24386
G1 X103.569 Y80.782 E168.41847
G1 X104.605 Y80.545 E168.68358
G1 X104.736 Y80.525 E168.71664
G1 X83.345 Y101.916 E176.26289
G1 X83.315 Y102.615 E176.43741
G1 X83.315 Y103.36 E176.62326
G1 X106.342 Y80.333 E184.74665
G1 X106.652 Y80.308 E184.82423
G1 X107.301 Y80.295 E184.98616
G1 X107.794 Y80.295 E185.10914
G1 X83.362 Y104.727 E193.72819
G1 X83.411 Y105.378 E193.89104
G1 X83.493 Y106.011 E194.05026
G1 X109.209 Y80.295 E203.12227
G1 X110.623 Y80.295 E203.475
G1 X83.686 Y107.232 E212.97775
G1 X83.783 Y107.75 E213.10921
G1 X83.893 Y108.267 E213.24107
G1 X83.93 Y108.402 E213.27598
G1 X112.037 Y80.295 E223.19149
G1 X112.738 Y80.296 E223.36635
G1 X113.424 Y80.323 E223.53761
G1 X84.217 Y109.529 E233.84099
G1 X84.421 Y110.252 E234.02838
G1 X84.506 Y110.655 E234.13113
G1 X114.72 Y80.441 E244.78993
G1 X114.903 Y80.463 E244.83591
G1 X115.919 Y80.656 E245.09388
G1 X84.652 Y111.922 E256.12398
G1 X84.657 Y113.332 E256.47571
G1 X117.045 Y80.943 E267.90163
G1 X117.263 Y80.992 E267.95737
G1 X117.92 Y81.112 E268.12397
G1 X118.214 Y81.189 E268.19978
G1 X84.697 Y114.706 E280.02381
G1 X84.738 Y115.259 E280.16213
G1 X84.847 Y115.971 E280.34181
G1 X119.322 Y81.496 E292.5038
G1 X120.125 Y81.774 E292.71577
G1 X120.364 Y81.868 E292.77984
G1 X85.087 Y117.144 E305.22457
G1 X85.126 Y117.318 E305.26906
G1 X85.403 Y118.243 E305.50992
G1 X121.405 Y82.24 E318.21078
G1 X122.267 Y82.602 E318.44399
G1 X122.397 Y82.663 E318.47982
G1 X85.784 Y119.276 E331.39604
G1 X85.864 Y119.489 E331.4528
G1 X86.199 Y120.275 E331.66593
G1 X123.361 Y83.114 E344.77565
G1 X123.512 Y83.181 E344.81686
G1 X124.298 Y83.591 E345.038
G1 X86.663 Y121.225 E358.31459
G1 X86.839 Y121.565 E358.41009
G1 X87.179 Y122.123 E358.57309
G1 X125.201 Y84.102 E371.9862
G1 X126.079 Y84.637 E372.24268
G1 X87.744 Y122.972 E385.76638
G1 X87.97 Y123.286 E385.86289
G1 X88.367 Y123.764 E386.01789
G1 X126.912 Y85.219 E399.61568
G1 X127.588 Y85.697 E399.8222
G1 X127.735 Y85.81 E399.86846
G1 X89.017 Y124.528 E413.52728
G1 X89.381 Y124.935 E413.66348
G1 X89.656 Y125.304 E413.77828
G1 X128.525 Y86.434 E427.49055
G1 X129.288 Y87.085 E427.74074
G1 X90.207 Y126.167 E441.5278
G1 X90.34 Y126.424 E441.59998
G1 X90.588 Y127.09 E441.77726
G1 X90.613 Y127.175 E441.79936
G1 X130.021 Y87.767 E455.7016
G1 X130.24 Y87.978 E455.77746
